!!!OTL: 1125. Schifflein mit Wein. / [Uraltes Zecherlied.]
!!!ARE: Europa, Mitteleuropa, Deutschland
!!!SCT: E1125
!!!TXL: @@DE
!!!YEM: Copyright 1995, estate of Helmut Schaffrath.
**kern	**text
*ICvox	*
*M4/4	*
*met(c)	*
*k[b-]	*
*F:	*
=1	=1
!LO:TX:a:t=Einer.	!
4r	.
{4g	Wir
4g	habn
4g	ein
=2	=2
4dd	Schiff
4dd	mit
4ee	Wein
4ee	be-
=3	=3
2cc}	-ladn
!LO:TX:a:t=[Alle.]	!
{4dd	[laßt
4ee	uns
=4	=4
4ff	fah-
4gg	-ren,
2ee	fah-
=5	=5
2dd	-ren!],
4r}	.
!LO:TX:a:t=Einer.	!
{4dd	dar-
=6	=6
4gg	-mit
4gg	wölln
4ee	wir
4ee	nach
=7	=7
4ff	Engel-
4ff	-land
2dd}	fahrn
=8	=8
!LO:TX:a:t=Alle.	!
{4cc	[laßt
4a	uns
2g}	fahrn].
=9	=9
{4b-	Laßt
4cc	uns
2dd	ſahrn.
=10	=10
4a	laßt
4b-/	uns
2cc}	fahrn,
=11	=11
{4g	laßt
4a	uns
4b-	fahrn
4cc	nach
=12	=12
4.a	Engel-
8g	-land
2g}	ʒu!
=13	=13
{4b-	Laßt
4cc	uns
2dd	ſahrn.
=14	=14
4a	laßt
4b-	uns
2cc}	fahrn,
=15	=15
{4g	laßt
4a	uns
4b-/	fahrn
4cc	nach
=16	=16
4.a	Engel-
8g	-land
2g}	ʒu!
==	==
!!!AGN: Trink -, Zech - Lied
!!!ONB: ESAC (Essen Associative Code) Database: ERK3
!!!AMT: simple quadruple
!!!AIN: vox
!!!EED: Helmut Schaffrath
!!!EEV: 1.0
!!!GTL: Trink- und Zechlieder.
!!!URL-scan: https://rosdok.uni-rostock.de/mcrviewer/recordIdentifier/rosdok_ppn745177999/iview2/phys_0066.iview2?x=188.1684953369795&y=547.9297088754829&scale=0.701185927818147&rotation=0&layout=singlePageLayout
!!!ENC: Anna Maria Matuszewska
!!!EEV: 2024/12/23
*-	*-
